X: 27654
T: Moran's Return
R: barndance
M: 4/4
K: Edorian
B>E (3EEE E2 A>G|F>D (3DDD D2 d>e|f>ed>c d>BA<F|E2 3DEF G2 (3FGA|
B2 e2 E2 d>B|A2 d2 D2 d>e|f>ed>c d>BA<F|E2 (3EEE E2:|
D2 d>c d3 e|f>e (3dcB A2 (3AGF|E2 e>^d e3 f|g>fe<d B2 d>e|
f2 g>f (3eee f>e|d>c (3dcB (3AAA d>e|f>ed>c d>BA<F|E2 E2 E2:|

